icons/pressure.svg

<?xml version="1.0" encoding="UTF-8" standalone="no"?>
<svg
   xmlns:dc="http://purl.org/dc/elements/1.1/"
   xmlns:cc="http://creativecommons.org/ns#"
   xmlns:rdf="http://www.w3.org/1999/02/22-rdf-syntax-ns#"
   xmlns:svg="http://www.w3.org/2000/svg"
   xmlns="http://www.w3.org/2000/svg"
   xmlns:sodipodi="http://sodipodi.sourceforge.net/DTD/sodipodi-0.dtd"
   xmlns:inkscape="http://www.inkscape.org/namespaces/inkscape"
   width="24"
   height="24"
   viewBox="0 0 24 24"
   fill="none"
   stroke="currentColor"
   stroke-width="2"
   stroke-linecap="round"
   stroke-linejoin="round"
   class="feather feather-alert-circle"
   version="1.1"
   id="svg854"
   sodipodi:docname="pressure.svg"
   inkscape:version="0.92.3 (2405546, 2018-03-11)">
  <metadata
     id="metadata860">
    <rdf:RDF>
      <cc:Work
         rdf:about="">
        <dc:format>image/svg+xml</dc:format>
        <dc:type
           rdf:resource="http://purl.org/dc/dcmitype/StillImage" />
        <dc:title></dc:title>
      </cc:Work>
    </rdf:RDF>
  </metadata>
  <defs
     id="defs858" />
  <sodipodi:namedview
     pagecolor="#ffffff"
     bordercolor="#666666"
     borderopacity="1"
     objecttolerance="10"
     gridtolerance="10"
     guidetolerance="10"
     inkscape:pageopacity="0"
     inkscape:pageshadow="2"
     inkscape:window-width="1920"
     inkscape:window-height="1016"
     id="namedview856"
     showgrid="false"
     inkscape:zoom="12.123935"
     inkscape:cx="6.9805033"
     inkscape:cy="8.5024739"
     inkscape:window-x="0"
     inkscape:window-y="27"
     inkscape:window-maximized="1"
     inkscape:current-layer="svg854" />
  <circle
     cx="12"
     cy="12"
     r="10"
     id="circle848" />
  <path
     style="fill:#000000;fill-opacity:1;stroke:#000000;stroke-width:1.01598275px;stroke-linecap:butt;stroke-linejoin:miter;stroke-opacity:1"
     d="m 4.157388,14.020504 3.8784933,-0.03009 c 0,0 0.1166466,3.372242 3.9076547,3.372242 3.936817,0 3.907654,-3.402344 3.907654,-3.402344 h 3.907656 c 0,0 -0.90401,5.899838 -7.81531,5.899838 -6.9112999,0 -7.786148,-5.839636 -7.786148,-5.839636 z"
     id="path862"
     inkscape:connector-curvature="0"
     sodipodi:nodetypes="ccsccscc" />
  <circle
     style="opacity:1;fill:#000000;fill-opacity:1;fill-rule:nonzero;stroke:#000000;stroke-width:1.9993701;stroke-linecap:square;stroke-linejoin:miter;stroke-miterlimit:4;stroke-dasharray:none;stroke-opacity:1;paint-order:fill markers stroke"
     id="path864"
     cx="12"
     cy="13.545566"
     r="1.4143378" />
  <path
     style="fill:#000000;fill-opacity:1;stroke:#000000;stroke-width:1px;stroke-linecap:butt;stroke-linejoin:miter;stroke-opacity:1"
     d="M 11.139732,12.772783 14.434993,9.2150669 13.326852,14.434994"
     id="path866"
     inkscape:connector-curvature="0"
     sodipodi:nodetypes="ccc" />
  <path
     style="fill:none;stroke:#000000;stroke-width:1px;stroke-linecap:butt;stroke-linejoin:miter;stroke-opacity:1"
     d="M 11.868773,3.4993925 V 6.1530984"
     id="path870"
     inkscape:connector-curvature="0" />
  <path
     style="fill:none;stroke:#000000;stroke-width:1px;stroke-linecap:butt;stroke-linejoin:miter;stroke-opacity:1"
     d="M 20.340219,11.868773 H 17.686513"
     id="path870-5"
     inkscape:connector-curvature="0" />
  <path
     style="fill:none;stroke:#000000;stroke-width:1px;stroke-linecap:butt;stroke-linejoin:miter;stroke-opacity:1"
     d="M 6.1968407,11.897934 H 3.5431347"
     id="path870-5-6"
     inkscape:connector-curvature="0" />
  <path
     style="fill:none;stroke:#000000;stroke-width:1px;stroke-linecap:butt;stroke-linejoin:miter;stroke-opacity:1"
     d="M 16.235722,4.8290405 14.90887,7.1272172"
     id="path870-2"
     inkscape:connector-curvature="0" />
  <path
     style="fill:none;stroke:#000000;stroke-width:1px;stroke-linecap:butt;stroke-linejoin:miter;stroke-opacity:1"
     d="M 19.258443,7.7642771 16.960267,9.09113"
     id="path870-9"
     inkscape:connector-curvature="0" />
  <path
     style="fill:none;stroke:#000000;stroke-width:1px;stroke-linecap:butt;stroke-linejoin:miter;stroke-opacity:1"
     d="m 4.5082634,7.8226003 2.298176,1.3268529"
     id="path870-1"
     inkscape:connector-curvature="0" />
  <path
     style="fill:none;stroke:#000000;stroke-width:1px;stroke-linecap:butt;stroke-linejoin:miter;stroke-opacity:1"
     d="M 7.501823,4.7998789 8.828675,7.0980556"
     id="path870-27"
     inkscape:connector-curvature="0" />
</svg>

<svg class="feather feather-alert-circle" width="24" height="24" fill="none" stroke="currentColor" stroke-linecap="round" stroke-linejoin="round" stroke-width="2" version="1.1" viewBox="0 0 24 24" xmlns="http://www.w3.org/2000/svg">
 <circle cx="12" cy="12" r="10"/>
 <g fill="#000" stroke="#000" stroke-linejoin="miter">
  <path d="m4.1574 14.021 3.8785-0.03009s0.11665 3.3722 3.9077 3.3722c3.9368 0 3.9077-3.4023 3.9077-3.4023h3.9077s-0.90401 5.8998-7.8153 5.8998c-6.9113 0-7.7861-5.8396-7.7861-5.8396z" stroke-linecap="butt" stroke-width="1.016px"/>
  <circle cx="12" cy="13.546" r="1.4143" stroke-linecap="square" stroke-width="1.9994" style="paint-order:fill markers stroke"/>
  <path d="m11.14 12.773 3.2953-3.5577-1.1081 5.2199" stroke-linecap="butt" stroke-width="1px"/>
 </g>
 <g fill="none" stroke="#000" stroke-linecap="butt" stroke-linejoin="miter" stroke-width="1px">
  <path d="m11.869 3.4994v2.6537"/>
  <path d="m20.34 11.869h-2.6537"/>
  <path d="m6.1968 11.898h-2.6537"/>
  <path d="m16.236 4.829-1.3269 2.2982"/>
  <path d="m19.258 7.7643-2.2982 1.3269"/>
  <path d="m4.5083 7.8226 2.2982 1.3269"/>
  <path d="m7.5018 4.7999 1.3269 2.2982"/>
 </g>
</svg>
